apps/16/checkbox.svg

<?xml version="1.0" encoding="UTF-8" standalone="no"?>
<!-- Created with Inkscape (http://www.inkscape.org/) -->

<svg
   xmlns:svg="http://www.w3.org/2000/svg"
   xmlns="http://www.w3.org/2000/svg"
   xmlns:xlink="http://www.w3.org/1999/xlink"
   version="1.0"
   width="16"
   height="16"
   id="svg2602">
  <defs
     id="defs2604">
    <linearGradient
       id="linearGradient2437">
      <stop
         id="stop2439"
         style="stop-color:#b3b3b3;stop-opacity:1"
         offset="0" />
      <stop
         id="stop2441"
         style="stop-color:#d2d2d2;stop-opacity:1"
         offset="1" />
    </linearGradient>
    <linearGradient
       x1="29.009098"
       y1="36.827461"
       x2="29.009098"
       y2="43.065559"
       id="linearGradient2592"
       xlink:href="#linearGradient2437"
       gradientUnits="userSpaceOnUse"
       gradientTransform="matrix(0.3043478,0,0,0.3333333,0.6956517,0.6666657)" />
    <linearGradient
       id="linearGradient3104-947-917-603-424-766-313">
      <stop
         id="stop3930"
         style="stop-color:#28673f;stop-opacity:1"
         offset="0" />
      <stop
         id="stop3932"
         style="stop-color:#41ae67;stop-opacity:1"
         offset="1" />
    </linearGradient>
    <linearGradient
       x1="-51.786404"
       y1="35.412201"
       x2="-51.786404"
       y2="2.2594204"
       id="linearGradient2570"
       xlink:href="#linearGradient3104-947-917-603-424-766-313"
       gradientUnits="userSpaceOnUse"
       gradientTransform="matrix(0.2570417,0,0,0.309103,18.342926,0.7293085)" />
    <linearGradient
       id="linearGradient3298-628-126-871-718-519-851">
      <stop
         id="stop3924"
         style="stop-color:#2f7b48;stop-opacity:1"
         offset="0" />
      <stop
         id="stop3926"
         style="stop-color:#76dd98;stop-opacity:1"
         offset="1" />
    </linearGradient>
    <linearGradient
       x1="31.84656"
       y1="31.999964"
       x2="31.84656"
       y2="0.99868447"
       id="linearGradient2568"
       xlink:href="#linearGradient3298-628-126-871-718-519-851"
       gradientUnits="userSpaceOnUse"
       gradientTransform="matrix(0.3183192,0,0,0.3302909,-0.5684903,1.0974109)" />
    <linearGradient
       id="linearGradient3202">
      <stop
         id="stop3204"
         style="stop-color:white;stop-opacity:1"
         offset="0" />
      <stop
         id="stop3206"
         style="stop-color:#d3eefc;stop-opacity:1"
         offset="1" />
    </linearGradient>
    <linearGradient
       x1="-83.756935"
       y1="-7.8379993"
       x2="-92.222527"
       y2="27.521217"
       id="linearGradient2598"
       xlink:href="#linearGradient3202"
       gradientUnits="userSpaceOnUse"
       gradientTransform="matrix(0.2105632,-0.0540859,0.05041239,0.2259067,26.031259,-0.7039248)" />
    <linearGradient
       id="linearGradient3738">
      <stop
         id="stop3742"
         style="stop-color:white;stop-opacity:1"
         offset="0" />
      <stop
         id="stop3750"
         style="stop-color:white;stop-opacity:0"
         offset="0.85612506" />
      <stop
         id="stop3744"
         style="stop-color:white;stop-opacity:0"
         offset="1" />
    </linearGradient>
    <linearGradient
       x1="17.355219"
       y1="8.000001"
       x2="24.007845"
       y2="26.039217"
       id="linearGradient2585"
       xlink:href="#linearGradient3738"
       gradientUnits="userSpaceOnUse"
       gradientTransform="matrix(0.3892281,0,0,0.4434783,-1.3445264,-2.5478262)" />
  </defs>
  <g
     id="layer1">
    <path
       d="m 4.9512838,12.502276 c 0,0 -0.4405222,1.999091 -0.4405222,2.13263 0,0.126139 -0.099124,0.865092 0.3042946,0.865092 0.3963591,0 6.1396108,0 6.4474378,0 0.308406,0 0.209767,-0.886179 0.236491,-0.956565 0.02585,-0.06808 -0.45033,-2.043435 -0.45033,-2.043435 l -6.0973712,0.0023 z"
       id="path2170"
       style="fill:url(#linearGradient2592);fill-opacity:1;fill-rule:evenodd;stroke:#999;stroke-width:0.99999976;stroke-linecap:round;stroke-linejoin:round;stroke-miterlimit:4;stroke-opacity:1;stroke-dasharray:none" />
    <path
       d="m 0.57186061,1.539902e-4 c 4.95209339,0 9.90418739,0 14.85627939,0 0.552077,-0.00476124 0.599248,0.6304031698 0.562311,1.0686449098 0,3.775343 -1e-6,7.550685 -1e-6,11.3260291 0.0045,0.584236 -0.595702,0.634155 -1.009821,0.595067 -4.802924,0 -9.6058457,0 -14.40876839,0 -0.55207637,0.0048 -0.59924854,-0.630404 -0.562311,-1.068645 0,-3.7753445 0,-7.5506874 0,-11.3260303 C 0.00225068,0.27535638 0.2695014,-0.00754388 0.57186061,1.539902e-4 z"
       id="rect3170"
       style="fill:#1a1a1a;fill-opacity:1;fill-rule:evenodd;stroke:none;stroke-width:1.00396311;marker:none;visibility:visible;display:inline;overflow:visible;enable-background:accumulate" />
    <path
       d="m 1.4999617,1.4999614 c 2.553012,0 10.4470653,0 13.0000773,0 0,4.172083 0,6.6246462 0,10.0000786 -3.713731,0 -9.2863463,0 -13.0000773,0 0,-4.9543726 0,-5.045707 0,-10.0000786 z"
       id="path4322"
       style="fill:url(#linearGradient2568);fill-opacity:1;stroke:url(#linearGradient2570);stroke-width:0.99992186;stroke-linecap:butt;stroke-linejoin:round;stroke-miterlimit:4;stroke-opacity:1;stroke-dasharray:none;stroke-dashoffset:0;display:inline" />
    <path
       d="M 10.131251,2.501636 C 10.015396,2.4890211 9.9002142,2.5498989 9.8406872,2.6667736 L 7.3044669,7.6453747 5.6738414,6.2543445 C 5.5285928,6.1691921 5.3473713,6.2239718 5.2680031,6.3798051 L 4.5367619,7.3870344 c -0.079368,0.1558313 -0.025974,0.3502002 0.1192735,0.4353503 0,0 2.9773187,2.6381933 2.9809923,2.6401433 0.034042,0.01996 0.069642,0.03 0.1058288,0.03491 0.1182119,0.01603 0.2391879,-0.04356 0.2999535,-0.16287 l 3.420429,-6.7142622 c 0.07937,-0.1558326 0.02597,-0.3502001 -0.119275,-0.4353511 L 10.24647,2.5388089 c -0.03631,-0.021288 -0.0766,-0.032968 -0.115219,-0.037173 z"
       id="path4368"
       style="fill:url(#linearGradient2598);fill-opacity:1;fill-rule:nonzero;stroke:none;stroke-width:1.00278974;marker:none;visibility:visible;display:inline;overflow:visible" />
    <path
       d="M 1,1.0139126 1,9 C 1.6666667,8.8091427 14.781089,4.3454169 14.999997,4.1095646 L 15.000001,1 1,1.0139126 z"
       id="path4073"
       style="opacity:0.3;fill:url(#linearGradient2585);fill-opacity:1;fill-rule:evenodd;stroke:none" />
  </g>
</svg>

<?xml version="1.0" encoding="UTF-8" standalone="no"?>
<!-- Created with Inkscape (http://www.inkscape.org/) -->
<svg
   xmlns:svg="http://www.w3.org/2000/svg"
   xmlns="http://www.w3.org/2000/svg"
   xmlns:xlink="http://www.w3.org/1999/xlink"
   version="1.0"
   width="16"
   height="16"
   id="svg2602">
  <defs
     id="defs2604">
    <linearGradient
       id="linearGradient2437">
      <stop
         id="stop2439"
         style="stop-color:#b3b3b3;stop-opacity:1"
         offset="0" />
      <stop
         id="stop2441"
         style="stop-color:#d2d2d2;stop-opacity:1"
         offset="1" />
    </linearGradient>
    <linearGradient
       x1="29.009098"
       y1="36.827461"
       x2="29.009098"
       y2="43.065559"
       id="linearGradient2592"
       xlink:href="#linearGradient2437"
       gradientUnits="userSpaceOnUse"
       gradientTransform="matrix(0.3043478,0,0,0.3333333,0.6956517,0.6666657)" />
    <linearGradient
       id="linearGradient3104-947-917-603-424-766-313">
      <stop
         id="stop3930"
         style="stop-color:#28673f;stop-opacity:1"
         offset="0" />
      <stop
         id="stop3932"
         style="stop-color:#41ae67;stop-opacity:1"
         offset="1" />
    </linearGradient>
    <linearGradient
       x1="-51.786404"
       y1="35.412201"
       x2="-51.786404"
       y2="2.2594204"
       id="linearGradient2570"
       xlink:href="#linearGradient3104-947-917-603-424-766-313"
       gradientUnits="userSpaceOnUse"
       gradientTransform="matrix(0.2570417,0,0,0.309103,18.342926,0.7293085)" />
    <linearGradient
       id="linearGradient3298-628-126-871-718-519-851">
      <stop
         id="stop3924"
         style="stop-color:#2f7b48;stop-opacity:1"
         offset="0" />
      <stop
         id="stop3926"
         style="stop-color:#76dd98;stop-opacity:1"
         offset="1" />
    </linearGradient>
    <linearGradient
       x1="31.84656"
       y1="31.999964"
       x2="31.84656"
       y2="0.99868447"
       id="linearGradient2568"
       xlink:href="#linearGradient3298-628-126-871-718-519-851"
       gradientUnits="userSpaceOnUse"
       gradientTransform="matrix(0.3183192,0,0,0.3302909,-0.5684903,1.0974109)" />
    <linearGradient
       id="linearGradient3202">
      <stop
         id="stop3204"
         style="stop-color:#ffffff;stop-opacity:1"
         offset="0" />
      <stop
         id="stop3206"
         style="stop-color:#d3eefc;stop-opacity:1"
         offset="1" />
    </linearGradient>
    <linearGradient
       x1="-83.756935"
       y1="-7.8379993"
       x2="-92.222527"
       y2="27.521217"
       id="linearGradient2598"
       xlink:href="#linearGradient3202"
       gradientUnits="userSpaceOnUse"
       gradientTransform="matrix(0.2105632,-5.4085899e-2,5.0412392e-2,0.2259067,26.031259,-0.7039248)" />
    <linearGradient
       id="linearGradient3738">
      <stop
         id="stop3742"
         style="stop-color:#ffffff;stop-opacity:1"
         offset="0" />
      <stop
         id="stop3750"
         style="stop-color:#ffffff;stop-opacity:0"
         offset="0.85612506" />
      <stop
         id="stop3744"
         style="stop-color:#ffffff;stop-opacity:0"
         offset="1" />
    </linearGradient>
    <linearGradient
       x1="17.355219"
       y1="8.000001"
       x2="24.007845"
       y2="26.039217"
       id="linearGradient2585"
       xlink:href="#linearGradient3738"
       gradientUnits="userSpaceOnUse"
       gradientTransform="matrix(0.3892281,0,0,0.4434783,-1.3445264,-2.5478262)" />
  </defs>
  <g
     id="layer1">
    <path
       d="M 4.9512838,12.502276 C 4.9512838,12.502276 4.5107616,14.501367 4.5107616,14.634906 C 4.5107616,14.761045 4.4116376,15.499998 4.8150562,15.499998 C 5.2114153,15.499998 10.954667,15.499998 11.262494,15.499998 C 11.5709,15.499998 11.472261,14.613819 11.498985,14.543433 C 11.524832,14.475355 11.048655,12.499998 11.048655,12.499998 L 4.9512838,12.502276 z"
       id="path2170"
       style="fill:url(#linearGradient2592);fill-opacity:1;fill-rule:evenodd;stroke:#999999;stroke-width:0.99999976;stroke-linecap:round;stroke-linejoin:round;stroke-miterlimit:4;stroke-dasharray:none;stroke-opacity:1" />
    <path
       d="M 0.57186061,0.0001539902 C 5.523954,0.0001539902 10.476048,0.0001539902 15.42814,0.0001539902 C 15.980217,-0.0046072524 16.027388,0.63055716 15.990451,1.0687989 C 15.990451,4.8441419 15.99045,8.6194839 15.99045,12.394828 C 15.994951,12.979064 15.394748,13.028983 14.980629,12.989895 C 10.177705,12.989895 5.3747833,12.989895 0.57186061,12.989895 C 0.019784242,12.994655 -0.027387928,12.359491 0.0095496098,11.92125 C 0.0095496098,8.1459055 0.0095496098,4.3705626 0.0095496098,0.5952197 C 0.0022506796,0.27535638 0.2695014,-0.0075438802 0.57186061,0.0001539902 z"
       id="rect3170"
       style="fill:#1a1a1a;fill-opacity:1;fill-rule:evenodd;stroke:none;stroke-width:1.00396311;stroke-linecap:round;stroke-linejoin:round;marker:none;marker-start:none;marker-mid:none;marker-end:none;stroke-miterlimit:4;stroke-dasharray:none;stroke-dashoffset:0;stroke-opacity:1;visibility:visible;display:inline;overflow:visible;enable-background:accumulate" />
    <path
       d="M 1.4999617,1.4999614 C 4.0529737,1.4999614 11.947027,1.4999614 14.500039,1.4999614 C 14.500039,5.6720444 14.500039,8.1246076 14.500039,11.50004 C 10.786308,11.50004 5.2136927,11.50004 1.4999617,11.50004 C 1.4999617,6.5456674 1.4999617,6.454333 1.4999617,1.4999614 z"
       id="path4322"
       style="fill:url(#linearGradient2568);fill-opacity:1;stroke:url(#linearGradient2570);stroke-width:0.99992186;stroke-linecap:butt;stroke-linejoin:round;stroke-miterlimit:4;stroke-dasharray:none;stroke-dashoffset:0;stroke-opacity:1;display:inline" />
    <path
       d="M 10.131251,2.501636 C 10.015396,2.4890211 9.9002142,2.5498989 9.8406872,2.6667736 L 7.3044669,7.6453747 L 5.6738414,6.2543445 C 5.5285928,6.1691921 5.3473713,6.2239718 5.2680031,6.3798051 L 4.5367619,7.3870344 C 4.4573944,7.5428657 4.5107876,7.7372346 4.6560354,7.8223847 C 4.6560354,7.8223847 7.6333541,10.460578 7.6370277,10.462528 C 7.6710694,10.482488 7.7066694,10.49253 7.7428565,10.497434 C 7.8610684,10.51346 7.9820444,10.453874 8.04281,10.334564 L 11.463239,3.6203018 C 11.542606,3.4644692 11.489213,3.2701017 11.343964,3.1849507 L 10.24647,2.5388089 C 10.210157,2.5175206 10.16987,2.5058408 10.131251,2.501636 z"
       id="path4368"
       style="fill:url(#linearGradient2598);fill-opacity:1;fill-rule:nonzero;stroke:none;stroke-width:1.00278974;stroke-linecap:round;stroke-linejoin:round;marker:none;marker-start:none;marker-mid:none;marker-end:none;stroke-miterlimit:4;stroke-dasharray:none;stroke-dashoffset:0;stroke-opacity:1;visibility:visible;display:inline;overflow:visible" />
    <path
       d="M 1,1.0139126 L 1,9 C 1.6666667,8.8091427 14.781089,4.3454169 14.999997,4.1095646 L 15.000001,1 L 1,1.0139126 z"
       id="path4073"
       style="opacity:0.3;fill:url(#linearGradient2585);fill-opacity:1;fill-rule:evenodd;stroke:none;stroke-width:1px;stroke-linecap:butt;stroke-linejoin:miter;stroke-opacity:1" />
  </g>
</svg>
